images/svg/customer-four.svg

<svg width="98" height="16" viewBox="0 0 98 16" fill="none" xmlns="http://www.w3.org/2000/svg">
<g clip-path="url(#clip0_1_406)">
<path fill-rule="evenodd" clip-rule="evenodd" d="M20.0034 0.0128598L0.129033 7.93268C0.0891417 7.94928 0.0558411 7.97861 0.0343076 8.01613C0.0117417 8.05003 -0.000201261 8.08992 1.04102e-05 8.13067C-0.000403888 8.17145 0.0115566 8.2114 0.0343076 8.24521C0.0571765 8.27968 0.0903296 8.30602 0.129033 8.32049L6.02977 10.4526C6.06135 10.4653 6.09577 10.4692 6.1294 10.464C6.1624 10.4588 6.19372 10.4459 6.22086 10.4264L17.4148 2.25462C17.4176 2.25341 17.4207 2.25278 17.4238 2.25278C17.4269 2.25278 17.4299 2.25341 17.4328 2.25462C17.439 2.25629 17.4447 2.25969 17.4491 2.26444C17.4502 2.26703 17.4507 2.26981 17.4507 2.27262C17.4507 2.27543 17.4502 2.27821 17.4491 2.2808C17.4514 2.28659 17.4514 2.29302 17.4491 2.2988L7.54048 10.9337C7.51763 10.9536 7.49926 10.9781 7.48659 11.0057C7.47472 11.0335 7.46915 11.0637 7.47025 11.094V15.6921C7.46907 15.7337 7.4817 15.7746 7.50618 15.8083C7.53068 15.8425 7.56479 15.8687 7.60418 15.8835C7.64361 15.8976 7.68644 15.8988 7.7266 15.887C7.76676 15.8753 7.80221 15.8512 7.82792 15.8181L10.6877 12.2869C10.7143 12.2546 10.7502 12.2312 10.7905 12.2198C10.8309 12.2067 10.8743 12.2067 10.9147 12.2198L14.56 13.5436C14.6081 13.5632 14.6621 13.5632 14.7102 13.5436C14.7575 13.5218 14.7953 13.4834 14.8164 13.4356L20.268 0.277945C20.2826 0.241598 20.286 0.201707 20.2778 0.163402C20.2709 0.124268 20.2521 0.0882405 20.2239 0.0603133C20.1966 0.0314847 20.1613 0.0115432 20.1226 0.0030805C20.0838 -0.00538222 20.0435 -0.00197483 20.0067 0.0128598" fill="#131416"/>
<path d="M26.2848 1.60889H24.4883L24.5144 12.5723H26.3109L26.2848 1.60889Z" fill="#131416"/>
<path d="M31.9403 4.68359C31.0322 4.68359 30.2009 5.01085 29.68 5.66538V4.84722H27.9863L28.0059 12.5707H29.6995L29.6865 7.45716C29.8445 7.08814 30.1086 6.77464 30.4451 6.55664C30.7817 6.33864 31.1754 6.22604 31.5761 6.23319C32.654 6.23319 33.2713 7.00062 33.2746 8.22132L33.2844 12.5707H34.978L34.9666 7.95133C34.9666 5.95501 33.7874 4.69013 31.9403 4.69504" fill="#131416"/>
<path d="M41.9744 4.81399L39.6291 10.227L37.2756 4.82708H35.3975L38.8958 12.5424H40.3902L43.864 4.80908L41.9744 4.81399Z" fill="#131416"/>
<path d="M48.0685 4.64613C47.0815 4.6625 46.1359 5.04575 45.4151 5.72146C44.6943 6.39718 44.2498 7.31714 44.168 8.30273C44.0862 9.28832 44.3728 10.2692 44.9723 11.055C45.5717 11.8407 46.4412 12.3753 47.4119 12.5548C48.3826 12.7343 49.3853 12.546 50.2252 12.0265C51.0651 11.507 51.6824 10.6933 51.9572 9.74336C52.232 8.79346 52.1446 7.77514 51.7122 6.88612C51.2797 5.99711 50.5329 5.30083 49.6168 4.93248C49.125 4.73414 48.5985 4.63676 48.0685 4.64613ZM48.0832 11.1031C46.7146 11.1031 45.7559 10.0427 45.7543 8.66822C45.7526 7.2937 46.6983 6.22518 48.0718 6.21373C49.4453 6.20227 50.3844 7.2757 50.3877 8.65022C50.3909 10.0247 49.4388 11.0916 48.0881 11.0949L48.0832 11.1031Z" fill="#131416"/>
<path d="M55.0091 4.77686H53.3154L53.3367 12.5003H55.0287L55.0091 4.77686Z" fill="#131416"/>
<path d="M55.0091 1.79883H53.3154V3.36643H55.0091V1.79883Z" fill="#131416"/>
<path d="M60.4084 6.19049C60.8533 6.18739 61.2896 6.31356 61.6644 6.55374C62.0391 6.79391 62.3364 7.13779 62.5202 7.54373L63.99 6.73866C63.6458 6.08609 63.1278 5.54185 62.4936 5.16634C61.8593 4.79084 61.1336 4.59877 60.397 4.61143C58.0942 4.61471 56.3467 6.35412 56.3467 8.64335C56.3467 10.9325 58.1187 12.6539 60.4297 12.6507C61.1661 12.6609 61.8909 12.4661 62.5233 12.0879C63.1556 11.7097 63.6708 11.163 64.0113 10.5087L62.5316 9.70369C62.3505 10.1111 62.0551 10.457 61.6813 10.6993C61.3076 10.9416 60.8716 11.0698 60.4264 11.0683C59.0578 11.0683 58.0844 10.008 58.0811 8.63353C58.0779 7.25901 59.0464 6.19049 60.4166 6.17904" fill="#131416"/>
<path d="M68.9064 4.5918C66.566 4.5918 64.8854 6.34922 64.8985 8.62044C64.8985 10.962 66.5872 12.6327 68.9227 12.6278C70.5314 12.6278 71.74 11.9241 72.4276 10.8278L71.1406 9.90496C70.7421 10.584 70.0153 11.0814 68.9423 11.0847C67.6652 11.0847 66.646 10.2551 66.566 8.98861L72.6089 8.97389C72.6236 8.72844 72.6236 8.58771 72.6236 8.41754C72.6236 5.93359 70.9201 4.59344 68.9048 4.59671L68.9064 4.5918ZM66.6362 7.74991C66.8649 6.60449 67.8611 6.03013 68.8492 6.03013C69.8373 6.03013 70.7274 6.62739 70.9152 7.73846L66.6362 7.74991Z" fill="#131416"/>
<path d="M93.9901 4.53088H93.9298C93.4033 4.52675 92.8812 4.62756 92.3938 4.82744C91.9065 5.02732 91.4637 5.32229 91.0913 5.6952C90.7188 6.0681 90.424 6.51148 90.2241 6.99957C90.0242 7.48765 89.9232 8.01068 89.9269 8.53825V8.55952C89.9236 9.08834 90.0255 9.61251 90.2267 10.1014C90.4279 10.5903 90.7244 11.0341 91.0987 11.4069C91.4731 11.7797 91.9179 12.074 92.407 12.2726C92.8962 12.4712 93.42 12.5701 93.9478 12.5636H93.9772C94.5046 12.5709 95.0281 12.4725 95.517 12.2741C96.0059 12.0757 96.4502 11.7814 96.8239 11.4084C97.1973 11.0358 97.4931 10.5924 97.6938 10.1042C97.8946 9.6159 97.9964 9.09249 97.9932 8.56443V8.53825C97.9963 8.01146 97.8948 7.48932 97.6946 7.00221C97.4944 6.51509 97.1995 6.07273 96.8271 5.70086C96.4551 5.3283 96.0129 5.03358 95.5261 4.83384C95.0394 4.63411 94.5179 4.53335 93.9919 4.53743L93.9901 4.53088ZM93.9707 10.9944C92.6004 10.9944 91.645 9.93403 91.6417 8.56116C91.6384 7.18828 92.5906 6.11648 93.9576 6.10667C95.3246 6.09685 96.2702 7.16864 96.2735 8.54316C96.2767 9.91767 95.3246 10.9846 93.9707 10.9878V10.9944Z" fill="#131416"/>
<path d="M86.9951 4.70312V5.41328C86.4545 4.85857 85.6526 4.55258 84.7299 4.55421C82.4989 4.55421 80.8853 6.27563 80.869 8.44212C80.8583 8.9547 80.9512 9.46415 81.142 9.93987C81.3327 10.4155 81.6175 10.8477 81.9792 11.2104C82.3409 11.5731 82.772 11.8588 83.2466 12.0503C83.7213 12.2419 84.2297 12.3353 84.7413 12.3251C85.6673 12.3251 86.466 11.9978 87.0033 11.4235V12.3382C87.0033 13.5409 86.35 14.1839 85.4648 14.3803C83.26 14.7763 81.8897 14.1103 81.8897 14.1103L81.3491 15.4979C82.1364 15.9888 84.578 16.1295 85.7114 15.8792C87.3446 15.5912 88.7034 14.521 88.6985 12.3529L88.6838 4.70148L86.9951 4.70312ZM87.0065 9.67755C86.788 10.0234 86.4825 10.3057 86.1208 10.4961C85.7591 10.6865 85.3538 10.7783 84.9455 10.7624C83.6079 10.7624 82.6345 9.76428 82.6181 8.43721C82.6098 8.1286 82.6654 7.8216 82.7815 7.5356C82.8944 7.24897 83.0644 6.9884 83.2812 6.7698C83.498 6.55117 83.7569 6.37897 84.0421 6.26364C84.3274 6.14832 84.633 6.09227 84.9406 6.0989C85.3466 6.08275 85.75 6.17185 86.1116 6.35761C86.4733 6.54336 86.781 6.81948 87.0049 7.15924L87.0065 9.67755Z" fill="#131416"/>
<path d="M75.7724 10.9947L78.0817 7.85297C78.5472 7.24262 79.2903 6.21665 79.4291 5.99247C80.0726 4.92722 80.151 3.80798 79.5925 2.69037C79.1368 1.78057 78.3316 1.33712 77.3403 1.21767C75.9504 1.04095 74.505 1.68566 73.8518 3.00454C73.6998 3.29164 73.6003 3.60362 73.5578 3.92579L75.0391 4.25306C75.062 4.18924 75.0832 4.13688 75.0979 4.08942C75.1683 3.81981 75.2982 3.56946 75.4779 3.35679C75.6577 3.14411 75.8828 2.97454 76.1366 2.86054C76.6772 2.61346 77.453 2.71 77.8711 3.07162C78.5717 3.68197 78.5619 4.70795 78.054 5.36248C77.9691 5.47375 73.5855 11.0699 73.5855 11.0699C73.5443 11.1188 73.5223 11.1811 73.5235 11.245V12.4837L80.0285 12.4674V10.9947H75.7724Z" fill="#131416"/>
</g>
<defs>
<clipPath id="clip0_1_406">
<rect width="98" height="16" fill="white"/>
</clipPath>
</defs>
</svg>

<svg width="98" height="16" fill="none" xmlns="http://www.w3.org/2000/svg"><g clip-path="url(#a)" fill="#131416"><path fill-rule="evenodd" clip-rule="evenodd" d="M20.003.013.13 7.933a.196.196 0 0 0-.095.083.205.205 0 0 0-.034.115.202.202 0 0 0 .129.19l5.9 2.132a.19.19 0 0 0 .1.011.214.214 0 0 0 .092-.038l11.194-8.171a.023.023 0 0 1 .018 0 .035.035 0 0 1 .016.01.02.02 0 0 1 .002.008.02.02 0 0 1-.002.008.024.024 0 0 1 0 .018L7.54 10.934a.214.214 0 0 0-.053.072.206.206 0 0 0-.017.088v4.598a.189.189 0 0 0 .036.116.198.198 0 0 0 .322.01l2.86-3.531a.206.206 0 0 1 .102-.067.201.201 0 0 1 .125 0l3.645 1.324a.2.2 0 0 0 .15 0 .214.214 0 0 0 .106-.108L20.268.278a.197.197 0 0 0 .01-.115.192.192 0 0 0-.054-.103.198.198 0 0 0-.217-.047"/><path d="M26.285 1.609h-1.797l.026 10.963h1.797L26.285 1.61ZM31.94 4.684c-.908 0-1.74.327-2.26.981v-.818h-1.694l.02 7.724H29.7l-.014-5.114a2.02 2.02 0 0 1 1.89-1.224c1.078 0 1.695.768 1.699 1.988l.01 4.35h1.693l-.011-4.62c0-1.996-1.18-3.26-3.027-3.256M41.974 4.814l-2.345 5.413-2.353-5.4h-1.879l3.499 7.715h1.494l3.474-7.733-1.89.005ZM48.069 4.646c-.988.016-1.933.4-2.654 1.075a3.99 3.99 0 0 0 1.997 6.834c.97.18 1.973-.009 2.813-.528a3.995 3.995 0 0 0 1.487-5.14 3.983 3.983 0 0 0-3.644-2.24Zm.014 6.457c-1.368 0-2.327-1.06-2.329-2.435-.001-1.374.944-2.443 2.318-2.454 1.373-.012 2.312 1.062 2.316 2.436.003 1.375-.95 2.442-2.3 2.445l-.005.008ZM55.01 4.777h-1.695l.022 7.723h1.692l-.02-7.723ZM55.01 1.799h-1.695v1.567h1.694V1.8ZM60.408 6.19a2.298 2.298 0 0 1 2.112 1.354l1.47-.805a3.99 3.99 0 0 0-3.593-2.128c-2.303.004-4.05 1.743-4.05 4.032 0 2.29 1.772 4.01 4.083 4.008a3.972 3.972 0 0 0 3.581-2.142l-1.48-.805a2.3 2.3 0 0 1-2.105 1.364c-1.368 0-2.342-1.06-2.345-2.434-.003-1.375.965-2.444 2.336-2.455M68.906 4.592c-2.34 0-4.02 1.757-4.008 4.028 0 2.342 1.69 4.013 4.025 4.008 1.608 0 2.817-.704 3.505-1.8l-1.287-.923c-.399.679-1.126 1.176-2.199 1.18-1.277 0-2.296-.83-2.376-2.096l6.043-.015c.015-.246.015-.386.015-.556 0-2.484-1.704-3.825-3.72-3.821l.002-.005Zm-2.27 3.158c.229-1.146 1.225-1.72 2.213-1.72s1.878.597 2.066 1.708l-4.279.012ZM93.99 4.53h-.06A3.966 3.966 0 0 0 90.224 7c-.2.488-.3 1.01-.297 1.538v.022a3.986 3.986 0 0 0 2.48 3.713c.49.198 1.013.297 1.54.29h.03a3.95 3.95 0 0 0 2.847-1.155 3.981 3.981 0 0 0 1.17-2.844v-.026a3.98 3.98 0 0 0-4.002-4l-.002-.007Zm-.02 6.464c-1.37 0-2.325-1.06-2.328-2.433-.004-1.373.949-2.445 2.316-2.454 1.367-.01 2.312 1.062 2.316 2.436.003 1.375-.95 2.442-2.303 2.445v.006ZM86.995 4.703v.71c-.54-.554-1.342-.86-2.265-.859-2.231 0-3.845 1.722-3.861 3.888a3.81 3.81 0 0 0 2.378 3.608c.474.192.983.285 1.494.275.926 0 1.725-.327 2.262-.901v.914c0 1.203-.653 1.846-1.538 2.042-2.205.396-3.575-.27-3.575-.27l-.54 1.388c.786.49 3.228.632 4.361.381 1.634-.288 2.992-1.358 2.987-3.526L88.684 4.7l-1.689.002Zm.011 4.975a2.334 2.334 0 0 1-2.06 1.084c-1.338 0-2.311-.998-2.328-2.325a2.237 2.237 0 0 1 .163-.901 2.268 2.268 0 0 1 2.16-1.437 2.358 2.358 0 0 1 2.064 1.06l.002 2.519ZM75.772 10.995l2.31-3.142c.465-.61 1.208-1.636 1.347-1.86.644-1.066.722-2.185.163-3.303-.455-.91-1.26-1.353-2.252-1.472-1.39-.177-2.835.468-3.488 1.787-.152.287-.252.599-.294.92l1.481.328c.023-.064.044-.116.059-.164a1.865 1.865 0 0 1 1.039-1.228c.54-.248 1.316-.151 1.734.21.7.611.69 1.637.183 2.291-.085.112-4.469 5.708-4.469 5.708a.264.264 0 0 0-.061.175v1.239l6.504-.017v-1.472h-4.256Z"/></g><defs><clipPath id="a"><path fill="#fff" d="M0 0h98v16H0z"/></clipPath></defs></svg>
